icon/pk/sun.svg

<svg viewBox="0 0 48 48" fill="none" xmlns="http://www.w3.org/2000/svg" height="1em" width="1em">
  <path d="M9.15039 9.15088L11.3778 11.3783" stroke="black" stroke-width="4" stroke-linecap="round" stroke-linejoin="round"/>
  <path d="M3 24H6.15" stroke="black" stroke-width="4" stroke-linecap="round" stroke-linejoin="round"/>
  <path d="M9.15039 38.8495L11.3778 36.6221" stroke="black" stroke-width="4" stroke-linecap="round" stroke-linejoin="round"/>
  <path d="M38.8495 38.8495L36.6221 36.6221" stroke="black" stroke-width="4" stroke-linecap="round" stroke-linejoin="round"/>
  <path d="M44.9996 24H41.8496" stroke="black" stroke-width="4" stroke-linecap="round" stroke-linejoin="round"/>
  <path d="M38.8495 9.15088L36.6221 11.3783" stroke="black" stroke-width="4" stroke-linecap="round" stroke-linejoin="round"/>
  <path d="M24 3V6.15" stroke="black" stroke-width="4" stroke-linecap="round" stroke-linejoin="round"/>
  <path d="M24 36C30.6274 36 36 30.6274 36 24C36 17.3726 30.6274 12 24 12C17.3726 12 12 17.3726 12 24C12 30.6274 17.3726 36 24 36Z" fill="white" stroke="black" stroke-width="4" stroke-linejoin="round"/>
  <path d="M24 45.0001V41.8501" stroke="black" stroke-width="4" stroke-linecap="round" stroke-linejoin="round"/>
</svg>

<svg width="48" height="48" fill="none" xmlns="http://www.w3.org/2000/svg"><path d="m9.15 9.15 2.228 2.228M3 24h3.15M9.15 38.85l2.228-2.228M38.85 38.85l-2.228-2.228M45 24h-3.15M38.85 9.15l-2.228 2.228M24 3v3.15" stroke="#000" stroke-width="4" stroke-linecap="round" stroke-linejoin="round"/><path d="M24 36c6.627 0 12-5.373 12-12s-5.373-12-12-12-12 5.373-12 12 5.373 12 12 12Z" fill="#fff" stroke="#000" stroke-width="4" stroke-linejoin="round"/><path d="M24 45v-3.15" stroke="#000" stroke-width="4" stroke-linecap="round" stroke-linejoin="round"/></svg>
